tools/download-figma-icons/icons/outlined-medium/emob-cable-spiral.svg

<svg width="24" height="24" viewBox="0 0 24 24" fill="none" xmlns="http://www.w3.org/2000/svg">
<path fill-rule="evenodd" clip-rule="evenodd" d="M14.8461 2.35813C13.6364 2.25988 11.2746 2.16388 9.23241 2.62888C7.15493 3.10213 5.4652 3.81537 4.64396 4.19786L5.0017 5.4511C5.86719 5.14735 7.31768 4.64786 8.50792 4.28186C10.0334 3.81462 10.6011 4.32611 10.9874 4.94936C10.9913 4.95546 10.9947 4.96157 10.9982 4.96782C11.0008 4.97232 11.0033 4.9769 11.0061 4.98161C11.0226 4.97786 11.0406 4.97336 11.0609 4.96736C11.9189 4.73711 13.5186 4.62386 14.3841 4.57736L14.8461 2.35813ZM6.16419 7.82781C6.36518 7.58031 6.69893 7.48431 6.99818 7.58856C7.29893 7.69431 7.49992 7.97781 7.49992 8.2958C7.49992 8.4308 7.47217 11.6295 5.0302 14.0685C4.88395 14.2147 4.69195 14.2882 4.49995 14.2882C4.30871 14.2882 4.11671 14.2147 3.96971 14.0685C3.67721 13.7752 3.67721 13.3013 3.96971 13.0095C4.7797 12.201 5.26645 11.2748 5.55969 10.458C4.34621 11.2943 3.08322 11.5598 1.96648 11.1683C0.771742 10.7498 0 9.63979 0 8.33855C0 6.19807 2.14048 4.97559 3.17247 4.50984L3.02922 4.0066C2.93247 3.6691 3.08472 3.3091 3.39447 3.14261C3.48971 3.09086 5.75094 1.88487 8.89866 1.16863C12.0441 0.452382 15.6958 0.933128 15.8503 0.954127C16.0573 0.981877 16.2426 1.09363 16.3626 1.26387C16.4826 1.43337 16.5268 1.64487 16.4848 1.84812L15.7348 5.45183C15.6636 5.79008 15.3718 6.03608 15.0261 6.04808C14.3196 6.07283 12.3006 6.18532 11.4524 6.41407C10.3221 6.71782 9.89315 6.03083 9.7109 5.73608C9.68165 5.68883 9.63665 5.61683 9.6164 5.59658C9.6164 5.59805 9.61246 5.59772 9.60379 5.597C9.59472 5.59626 9.58047 5.59508 9.56015 5.59508C9.47615 5.59508 9.29015 5.61008 8.94966 5.71358C7.16693 6.26332 4.7782 7.11906 4.75345 7.12806C4.6717 7.15731 4.5862 7.17231 4.49995 7.17231C4.38221 7.17231 4.26521 7.14456 4.15796 7.08906C3.97346 6.99457 3.83621 6.82882 3.77921 6.62857L3.59171 5.97233C2.79522 6.36532 1.49998 7.18281 1.49998 8.33855C1.49998 9.00455 1.86898 9.54679 2.46297 9.75454C3.51746 10.1228 4.90195 9.40429 6.16419 7.82781ZM9.00238 9.04633C8.58838 9.05232 8.25239 9.37857 8.25014 9.79107C8.25014 9.81807 8.21039 12.5195 6.21991 14.507C5.92666 14.8003 5.92666 15.2743 6.21991 15.566C6.36615 15.713 6.55815 15.7858 6.75015 15.7858C6.94215 15.7858 7.13415 15.713 7.2804 15.566C9.72237 13.1278 9.75012 9.92907 9.75012 9.79332C9.75012 9.38082 9.41562 9.04707 9.00238 9.04633ZM11.2523 10.5441H11.2501C10.8376 10.5441 10.5023 10.8778 10.5001 11.2896C10.5001 11.3166 10.4603 14.0173 8.46987 16.0055C8.17662 16.298 8.17662 16.772 8.46987 17.0645C8.61612 17.2115 8.80812 17.2835 9.00011 17.2835C9.19211 17.2835 9.38411 17.2115 9.53036 17.0645C11.9723 14.6256 12.0001 11.4276 12.0001 11.2918C12.0001 10.8793 11.6656 10.5448 11.2523 10.5441ZM13.5001 12.0419H13.5023C13.9156 12.0426 14.2501 12.3771 14.2501 12.7896C14.2501 12.9254 14.2223 16.1234 11.7803 18.5623C11.6341 18.7093 11.4421 18.7821 11.2501 18.7821C11.0581 18.7821 10.8661 18.7093 10.7198 18.5623C10.4266 18.2706 10.4266 17.7966 10.7198 17.5033C12.7103 15.5151 12.7501 12.8144 12.7501 12.7874C12.7523 12.3756 13.0876 12.0419 13.5001 12.0419ZM15.7523 13.5404H15.75C15.3375 13.5404 15.0023 13.8734 15.0001 14.2859C15.0001 14.3129 14.9603 17.0136 12.9698 19.0011C12.6766 19.2944 12.6766 19.7684 12.9698 20.0609C13.1161 20.2071 13.3081 20.2799 13.5001 20.2799C13.6921 20.2799 13.8841 20.2071 14.0303 20.0609C16.4723 17.6219 16.5 14.4232 16.5 14.2882C16.5 13.8749 16.1655 13.5412 15.7523 13.5404ZM18 15.0382H18.0023C18.4155 15.039 18.75 15.3735 18.75 15.7859C18.75 15.9217 18.7223 19.1197 16.2803 21.5586C16.134 21.7056 15.942 21.7784 15.75 21.7784C15.558 21.7784 15.366 21.7056 15.2198 21.5586C14.9266 21.2661 14.9266 20.7921 15.2198 20.4996C17.2103 18.5114 17.25 15.8107 17.25 15.7837C17.2523 15.372 17.5875 15.0382 18 15.0382ZM23.2501 21.0293C22.4903 21.0293 21.9391 20.8156 21.5641 20.3753C21.0368 19.7574 20.9266 18.7584 20.9393 18.0504C20.9978 17.6071 21.0001 17.3221 21.0001 17.2839C21.0001 16.8939 20.7008 16.5699 20.3116 16.5376C19.9276 16.5061 19.5751 16.7761 19.5106 17.1616C19.5046 17.1954 19.4596 17.4729 19.4454 17.8876C19.3164 18.8026 18.8889 20.5808 17.4699 21.9976C17.1766 22.2908 17.1766 22.7641 17.4699 23.0566C17.6161 23.2028 17.8081 23.2763 18.0001 23.2763C18.1921 23.2763 18.3841 23.2028 18.5304 23.0566C19.2264 22.3621 19.7266 21.6053 20.0851 20.8748C20.1811 21.0368 20.2913 21.1936 20.4166 21.3406C21.0841 22.1281 22.0381 22.5271 23.2501 22.5271C23.6648 22.5271 24.0001 22.1926 24.0001 21.7786C24.0001 21.3638 23.6648 21.0293 23.2501 21.0293Z" fill="black"/>
</svg>

<svg width="24" height="24" viewBox="0 0 24 24" fill="none" xmlns="http://www.w3.org/2000/svg"><path fill-rule="evenodd" clip-rule="evenodd" d="M14.846 2.358c-1.21-.098-3.571-.194-5.614.27a23.648 23.648 0 0 0-4.588 1.57l.358 1.253c.865-.304 2.316-.803 3.506-1.17 1.525-.466 2.093.045 2.48.668l.01.019.008.014a.873.873 0 0 0 .055-.015c.858-.23 2.458-.343 3.323-.39l.462-2.219Zm-8.682 5.47a.75.75 0 0 1 1.336.468c0 .135-.028 3.334-2.47 5.773a.748.748 0 0 1-1.06 0 .749.749 0 0 1 0-1.06c.81-.808 1.296-1.734 1.59-2.551-1.214.836-2.477 1.102-3.594.71C.772 10.75 0 9.64 0 8.338c0-2.14 2.14-3.362 3.172-3.828l-.143-.503a.748.748 0 0 1 .365-.864C3.49 3.09 5.751 1.885 8.9 1.169c3.144-.717 6.796-.236 6.95-.215a.747.747 0 0 1 .635.894l-.75 3.604a.75.75 0 0 1-.709.596c-.706.025-2.725.137-3.574.366-1.13.304-1.559-.383-1.741-.678a1.214 1.214 0 0 0-.095-.14c0 .002-.004.002-.012.001l-.044-.002c-.084 0-.27.015-.61.119-1.783.55-4.172 1.405-4.197 1.414a.752.752 0 0 1-.974-.5l-.187-.656C2.795 6.365 1.5 7.182 1.5 8.34c0 .666.369 1.208.963 1.416 1.054.368 2.439-.35 3.701-1.927Zm2.838 1.218a.754.754 0 0 0-.752.745c0 .027-.04 2.729-2.03 4.716a.747.747 0 0 0 .53 1.279.745.745 0 0 0 .53-.22c2.442-2.438 2.47-5.637 2.47-5.773a.748.748 0 0 0-.748-.747Zm2.25 1.498h-.002a.75.75 0 0 0-.75.746c0 .027-.04 2.727-2.03 4.716A.747.747 0 0 0 9 17.283a.744.744 0 0 0 .53-.219c2.442-2.438 2.47-5.636 2.47-5.772a.748.748 0 0 0-.748-.748Zm2.248 1.498h.002c.414 0 .748.335.748.748 0 .135-.028 3.333-2.47 5.772a.745.745 0 0 1-.53.22.747.747 0 0 1-.53-1.279c1.99-1.988 2.03-4.689 2.03-4.716a.75.75 0 0 1 .75-.745Zm2.252 1.498h-.002a.75.75 0 0 0-.75.746c0 .027-.04 2.728-2.03 4.715a.748.748 0 1 0 1.06 1.06c2.442-2.44 2.47-5.638 2.47-5.773a.748.748 0 0 0-.748-.748ZM18 15.038h.002a.748.748 0 0 1 .748.748c0 .136-.028 3.334-2.47 5.773a.745.745 0 0 1-.53.22.747.747 0 0 1-.53-1.279c1.99-1.989 2.03-4.69 2.03-4.716a.75.75 0 0 1 .75-.746Zm5.25 5.991c-.76 0-1.31-.213-1.686-.654-.527-.618-.637-1.617-.625-2.325.059-.443.061-.728.061-.766a.75.75 0 0 0-1.49-.122 5.798 5.798 0 0 0-.065.726c-.129.915-.556 2.693-1.975 4.11a.747.747 0 0 0 .53 1.278.748.748 0 0 0 .53-.22 8.128 8.128 0 0 0 1.555-2.181 3.3 3.3 0 0 0 .332.466c.667.787 1.621 1.186 2.833 1.186a.749.749 0 1 0 0-1.498Z" fill="currentColor"/></svg>
